X:1
T: Butter Milk Mary
C:
R:Jig
Q:180
K:A
M:6/8
L:1/16
A2B2|c2A2E2 F2E2C2|E2A2c2 e2c2A2|d2e2f2 e2d2c2|c2B2B2 B2e2d2|c2e2a2 e2c2A2|d2e2f2 e2c2A2|d2c2d2 B2e2d2|c2A2A2 A4AB|
c2A2E2 F2E2C2|E2A2c2 e2c2A2|d2e2f2 e2d2c2|c2B2B2 B2e2d2|c2e2a2 e2c2A2|d2e2f2 e2c2A2|d2c2d2 B2e2d2|c2A2A2 A4cd|
e2a2a2 a2g2f2|e2c2A2 A2c2e2|f2b2b2 b4a2|g2b2g2 e2f2g2|a2b2a2 g2a2g2|f2g2f2 e2d2c2|d2f2a2 e2c2A2|B2A2A2 A4cd|
e2a2a2 a2g2f2|e2c2A2 A2c2e2|f2b2b2 b4a2|g2b2g2 e2f2g2|a2b2a2 g2a2g2|f2g2f2 e2d2c2|d2f2a2 e2c2A2|B2A2A2 A4||
